public/avatar/body/60.svg

<svg xmlns:xlink="http://www.w3.org/1999/xlink" height="82" width="84.85" xmlns="http://www.w3.org/2000/svg"><g transform="translate(37.4 42.25)"><use height="38" transform="translate(-11.95 -17.45)" width="32.05" xlink:href="#a"/><use height="38.95" transform="translate(-12.45 -17.95)" width="33.05" xlink:href="#b"/><use height="19.6" transform="translate(-12.7 2.65)" width="33.25" xlink:href="#c"/></g><defs><path d="M27.35 7.4q2.15 4.15 3.55 8.75 1.45 4.7 1.15 9.5-.35 4.95-4.2 8.1-3.8 3.2-8.75 4.05l-2.6.2q-3.6 0-7.05-1.15-4.65-1.6-7.1-5.5Q-.2 27.4.05 23q.2-4.4 2-9.3Q3.85 8.75 7 5.05 10.1 1.3 14.7.1l1.8-.1q1.9.05 3.7.8 4.75 2.05 7.15 6.6" fill="#d79d51" fill-rule="evenodd" transform="translate(-.05)" id="d"/><path d="M27.35 7.4Q24.95 2.85 20.2.8 17.55-.3 14.7.1 10.1 1.3 7 5.05q-3.15 3.7-4.95 8.65-1.8 4.9-2 9.3-.25 4.4 2.3 8.35 2.45 3.9 7.1 5.5 4.65 1.55 9.65.95 4.95-.85 8.75-4.05 3.85-3.15 4.2-8.1.3-4.8-1.15-9.5-1.4-4.6-3.55-8.75Z" fill="none" stroke="#a95401" stroke-linecap="round" stroke-linejoin="round" transform="translate(.45 .5)" id="e"/><use height="38" width="32.05" xlink:href="#d" id="a"/><use height="38.95" width="33.05" xlink:href="#e" id="b"/><g id="c"><path d="m11.6 6.05.2.1.15.1q.3 1.15.05 2.35.3 1.1-.8 2l-.5.3-.45-.35-1 .05.05-.3-.6.8-.2-.05-.2-.35-.05-.15-.3-.05-1.45-.65v-.1l-.25.25-.3.35-.25.1h-.2q-.65.4-.55 1.35l.4.25.05.45.4.15.25 1.65h-6l-.15-.8q.6-.4 1.15-.85.3-.2.6 0l.15.15h.1l.1-.05.15-.15.15-.25h.55l-.25-.55h-.05l-.4-.85L.9 10.7l-.1.2-.35.15-.8-.1q-.95.15-1.7-.5l.4 1.05q-1.75-.25-2.25-1.95l-.2-.85q-.6-1.15.1-2.35l.1-.1.35.2.05.05.25 1.8.15.05.1-.9.1-.15.25-.05h.25l.15-.3q-.05-.7.3-1.3l.15-.1.3.15.1.1.1.8h.2V5.3l.45-.25.35.15.05.1.1.8h.1l-.05-.9v-.15q.15-.25.45-.25l.35.15.05.1.1.65.35.1v-.45l.1-.3.25-.15.15-.05.3.2.1.05.1 1 .25-.2.15-.05.35.2.05.05.1.8.1-.05.3.2.1.05.1.8.2-.05v-.2L4 7.6l.2-.05V6.6l.05-.25q.15-.25.45-.25l.1.05v-.2l.1-.3q.15-.2.45-.2V5.4l.35.2.05.05v.2l.1-.35.05-.15q.15-.25.45-.25l.35.15.05.1v.55l.1-.05h.1v-.4l.05-.3q.15-.2.45-.2V4.9l.3.2.1.05.05.95H8l.05-.25.25-.15.15-.05.3.2.1.05v.6l.2-.3q.05-.1.15-.1l.3.15.1.1.05.1.05-.05.2.1.15.1.25.55h.1l.2.45L11 9l.1-2.4.05-.3.45-.2v-.05m2.9 1.7.1.05q.05 1.35-.4 2.65l-.2.2q-.45.1-.6-.35 0-1.45.65-2.6l.15-.15.3.2M12.85 7l.35.15.05.1q.35 1.95-.9 3.2h-.15l-.15-.2-.1-.2q.4-1.2.4-2.5l.05-.3.3-.25h.15m-5.1 6.25.15.5-.1.55H6.2l.1-1 .05-.15h.4l.35.35.55-.3.1.05M-5.5 7.95l.3-.25h.15l.2.05.15.1.95 2.6.05.2-.3.4-.15.05q-1.3-1.15-1.35-3.05v-.1m-.65.05.35.2.05.05.15 1.45-.05.25q-.3.45-.75.1-.35-.75-.2-1.6v-.2l.45-.2V8" fill="#b5762b" fill-rule="evenodd" transform="translate(12.7 -2.65)"/><path d="m-10.05 4.95-.1.05-.25-.35.15-.1.1-.05.2.2.05.05-.15.2m2.3 1.15-.15.2-.1.05q-.3-.05-.2-.35l.1-.1.1-.05.2.2.05.05m1.95 1.2.05-.1.25-.15.15.05.05.05.05.4-.05.1h-.4l-.1-.35m3.25.85q.2.2.1.45l-.15.15q-.25.1-.4-.15l-.05-.2.05-.2.1-.1.1-.05.2.05.05.05m-9.2-4.9v.15l-.1.15-.05.05-.1.05-.2-.1-.05-.05-.05-.1.05-.2.1-.1.1-.05q.2 0 .3.15v.05" fill="#fff" fill-rule="evenodd" transform="translate(12.7 -2.65)"/><path d="M-9.9 4.05q.35.05.6.3t.2.6l-.3.6q-.25.25-.6.2l-.6-.3-.2-.6.3-.6q.25-.25.6-.2m-.15.9.15-.2-.05-.05-.2-.2-.1.05-.15.1.25.35.1-.05m1.65.75q.25-.25.6-.2.35.05.6.3t.2.6l-.3.6q-.25.25-.6.2l-.6-.3-.2-.6.3-.6m.65.4-.05-.05-.2-.2-.1.05-.1.1q-.1.3.2.35l.1-.05.15-.2m1.6 1.5.3-.6q.25-.25.6-.2l.6.3q.25.25.2.6l-.3.6q-.25.25-.6.2-.35-.05-.6-.3l-.2-.6m.35-.3.1.35h.4l.05-.1-.05-.4-.05-.05-.15-.05-.25.15-.05.1m3.35.35.8.35q.25.35.2.85l-.35.7q-.35.35-.8.3l-.75-.4-.25-.75q0-.45.4-.8.3-.3.75-.25m-.1.5-.05-.05-.2-.05-.1.05-.1.1-.05.2.05.2q.15.25.4.15l.15-.15q.1-.25-.1-.45M-12.4 2.9l.6-.2q.35.05.6.3t.2.6l-.3.6-.6.2-.6-.3-.2-.6.3-.6m.65.35V3.2q-.1-.15-.3-.15l-.1.05-.1.1-.05.2.05.1.05.05.2.1.1-.05.05-.05.1-.15v-.15" fill="#ccc" fill-rule="evenodd" transform="translate(12.7 -2.65)"/><path d="m1.95 11.1-.35.35q-1.65.2-1.45-1.25.05-.35.35-.6l.55-.25q1.7.4.9 1.75" fill="#a95401" fill-rule="evenodd" transform="translate(12.7 -2.65)"/><path d="m.95 9.8-.4.05q-.8-.5.1-.9.75.2.3.85" fill="#fff" fill-rule="evenodd" transform="translate(12.7 -2.65)"/><path d="M.95 8.5q.55 0 .95.4.3.45.25 1l-.4.85q-.45.35-1 .35-.55-.05-.85-.45l-.35-.95q.05-.55.5-.9.35-.35.9-.3m0 1.3q.45-.65-.3-.85-.9.4-.1.9l.4-.05" fill="#ccc" fill-rule="evenodd" transform="translate(12.7 -2.65)"/><path d="M5.15 10.3v3.75H3.2V10.3h1.95" fill="#a95401" fill-rule="evenodd" transform="translate(12.7 -2.65)"/><path d="M5.15 10.3v3.75H3.2V10.3h1.95Z" fill="none" stroke="#a95401" stroke-linecap="round" stroke-linejoin="round" transform="translate(12.7 -2.65)"/><path d="M2.9 13.1V9.35h1.95v3.75H2.9" fill="#ccc" fill-rule="evenodd" transform="translate(12.7 -2.65)"/><path d="M2.9 13.1V9.35h1.95" fill="none" stroke="#fff" stroke-linecap="round" stroke-linejoin="round" transform="translate(12.7 -2.65)"/><path d="M4.85 9.35v3.75H2.9Z" fill="none" stroke="#9a9a9a" stroke-linecap="round" stroke-linejoin="round" transform="translate(12.7 -2.65)"/><path d="m15.6 6.05.05-.05.2-.2.1.05.1.1q.1.3-.2.35l-.1-.05-.15-.2M19.9 3l.1.05.1.1.05.2-.05.1-.05.05-.2.1-.1-.05-.05-.05-.1-.15v-.2q.1-.15.3-.15m-6.8 4.5q-.1-.2.05-.4l.05-.05.15-.05.25.15.05.1-.1.35h-.4l-.05-.1M18 4.45l.1.05.15.1-.25.35-.1-.05-.15-.2.05-.05.2-.2m-7.15 3.7.05.2-.05.2q-.15.25-.4.15l-.15-.15q-.1-.25.1-.45l.05-.05.2-.05.1.05.1.1" fill="#fff" fill-rule="evenodd" transform="translate(12.7 -2.65)"/><path d="M20.35 4.05q-.25.25-.6.3-.35.05-.6-.2l-.3-.6q-.05-.35.2-.6l.6-.3q.35-.05.6.2l.3.6-.2.6M19.9 3q-.2 0-.3.15v.2l.1.15.05.05.1.05.2-.1.05-.05.05-.1-.05-.2-.1-.1-.1-.05m-4.3 3.05.15.2.1.05q.3-.05.2-.35l-.1-.1-.1-.05-.2.2-.05.05m.65-.4.3.6-.2.6q-.25.25-.6.3l-.6-.2-.3-.6q-.05-.35.2-.6l.6-.3q.35-.05.6.2m.9-1.35.6-.3q.35-.05.6.2l.3.6-.2.6q-.25.25-.6.3l-.6-.2-.3-.6q-.05-.35.2-.6m.85.15-.2.2-.05.05.15.2.1.05.25-.35-.15-.1-.1-.05M13.1 7.5l.05.1h.4l.1-.35-.05-.1-.25-.15-.15.05-.05.05q-.15.2-.05.4m.6-.55.3.6-.2.6-.6.3-.6-.2-.3-.6q-.05-.35.2-.6t.6-.3q.35-.05.6.2m-2.85 1.2-.1-.1-.1-.05-.2.05-.05.05q-.2.2-.1.45l.15.15q.25.1.4-.15l.05-.2-.05-.2m.25-.3.4.8-.3.75-.7.4-.85-.3-.35-.7q-.05-.5.25-.85.3-.3.75-.35.45-.05.8.25" fill="#ccc" fill-rule="evenodd" transform="translate(12.7 -2.65)"/><path d="m6.65 9.35.4-.2q.7.05 1 .6.35.25.3.6L8.1 11l-.6.45q-1.2.2-1.2-.6v-.05l-.2-.35q-.1-.7.55-1.1" fill="#a95401" fill-rule="evenodd" transform="translate(12.7 -2.65)"/><path d="m6.9 8.45.95.3.45.9-.35.95q-.3.4-.85.45-.55 0-.95-.35-.4-.35-.45-.85-.05-.55.3-1 .35-.4.9-.4m0 1.3.4.05q.8-.5-.1-.9-.75.2-.3.85" fill="#ccc" fill-rule="evenodd" transform="translate(12.7 -2.65)"/><path d="M6.9 9.75q-.45-.65.3-.85.9.4.1.9l-.4-.05" fill="#fff" fill-rule="evenodd" transform="translate(12.7 -2.65)"/><path d="m-7.65 15.6.3.1-.15-.05-.15-.05m4.5 1.55 1.4.75h-.1l-1.05-.6-.25-.15m18.8-1.8-.2.05-.25.05q-2.25.4-4.2 1.55l-.05.05.05.05q-1.3-.8-.35-3.05l3.5-.55 4.55-1.1q-.65 1.35-2.1 2.9H16l-.35.05" fill="#4139d0" fill-rule="evenodd" transform="translate(12.7 -2.65)"/><path d="m8.35 15.55-.2.15Q6.2 17.2 4.4 17.05q-1.8-.2-3.75-.9l-3.7-1.4-.85-.4q-.7-.45-1.25-.65l3.7.55 5.95.25 5.65-.4-1.8 1.45" fill="#2b2cae" fill-rule="evenodd" transform="translate(12.7 -2.65)"/><path d="m11 17.1-.45.15-.05.05-.1.1-.1.05-.25.15-.4.3-.3.4q-1.2-1.15-1-2.75l1.8-1.45.5-.05Q9.7 16.3 11 17.1M7.75 20 5.8 21.3l-1.3.4q1.7-1.55 1.45-3.65-.05-.7-.45-1.05 1.5.25 2.15 1.8.3.6.1 1.2" fill="#8b8cfe" fill-rule="evenodd" transform="translate(12.7 -2.65)"/><path d="m5.8 21.3 1.85-1.05.25-.25 1.55-1.65.1-.1.3-.4 1.2-.7-.05-.05m-5.2 4.2-1.3.4q-1.5.25-2.9-.7l-1.8-1.35-1.55-1.75-1.4-.75-3.2-1.2m-1.3-.35.3.1m23-.35.35-.05" fill="none" stroke="#352c78" stroke-linecap="round" stroke-linejoin="round" transform="translate(12.7 -2.65)"/><path d="m-5.15 13.7-3.2-.45-1.6-.5m28.65-.35-4.55 1.1-3.5.55-.5.05-5.65.4-5.95-.25-3.7-.55" fill="none" stroke="#b5b3e3" stroke-linecap="round" stroke-linejoin="round" transform="translate(12.7 -2.65)"/><path d="m-6.9 15.8.55.15m22-.6-.2.05q-2.25.55-4.4 1.75" fill="none" stroke="#352c78" stroke-linecap="round" stroke-linejoin="round" transform="translate(12.7 -2.65)"/></g></defs></svg>

<?xml version="1.0" encoding="UTF-8" standalone="no"?>
<svg xmlns:xlink="http://www.w3.org/1999/xlink" height="82.0px" width="84.85px" xmlns="http://www.w3.org/2000/svg">
  <g transform="matrix(1.0, 0.0, 0.0, 1.0, 37.4, 42.25)">
    <use height="38.0" transform="matrix(1.0, 0.0, 0.0, 1.0, -11.95, -17.45)" width="32.05" xlink:href="#sprite0"/>
    <use height="38.95" transform="matrix(1.0, 0.0, 0.0, 1.0, -12.45, -17.95)" width="33.05" xlink:href="#sprite1"/>
    <use height="19.6" transform="matrix(1.0, 0.0, 0.0, 1.0, -12.7, 2.65)" width="33.25" xlink:href="#shape2"/>
  </g>
  <defs>
    <g id="sprite0" transform="matrix(1.0, 0.0, 0.0, 1.0, -0.05, 0.0)">
      <use height="38.0" transform="matrix(1.0, 0.0, 0.0, 1.0, 0.05, 0.0)" width="32.05" xlink:href="#shape0"/>
    </g>
    <g id="shape0" transform="matrix(1.0, 0.0, 0.0, 1.0, -0.05, 0.0)">
      <path d="M27.35 7.4 Q29.5 11.55 30.9 16.15 32.35 20.85 32.05 25.65 31.7 30.6 27.85 33.75 24.05 36.95 19.1 37.8 L16.5 38.0 Q12.9 38.0 9.45 36.85 4.8 35.25 2.35 31.35 -0.2 27.4 0.05 23.0 0.25 18.6 2.05 13.7 3.85 8.75 7.0 5.05 10.1 1.3 14.7 0.1 L16.5 0.0 Q18.4 0.05 20.2 0.8 24.95 2.85 27.35 7.4" fill="#d79d51" fill-rule="evenodd" stroke="none"/>
    </g>
    <g id="sprite1" transform="matrix(1.0, 0.0, 0.0, 1.0, 0.45, 0.5)">
      <use height="38.95" transform="matrix(1.0, 0.0, 0.0, 1.0, -0.45, -0.5)" width="33.05" xlink:href="#shape1"/>
    </g>
    <g id="shape1" transform="matrix(1.0, 0.0, 0.0, 1.0, 0.45, 0.5)">
      <path d="M27.35 7.4 Q24.95 2.85 20.2 0.8 17.55 -0.3 14.7 0.1 10.1 1.3 7.0 5.05 3.85 8.75 2.05 13.7 0.25 18.6 0.05 23.0 -0.2 27.4 2.35 31.35 4.8 35.25 9.45 36.85 14.1 38.4 19.1 37.8 24.05 36.95 27.85 33.75 31.7 30.6 32.05 25.65 32.35 20.85 30.9 16.15 29.5 11.55 27.35 7.4 Z" fill="none" stroke="#a95401" stroke-linecap="round" stroke-linejoin="round" stroke-width="1.0"/>
    </g>
    <g id="shape2" transform="matrix(1.0, 0.0, 0.0, 1.0, 12.7, -2.65)">
      <path d="M11.6 6.05 L11.8 6.15 11.95 6.25 Q12.25 7.4 12.0 8.6 12.3 9.7 11.2 10.6 L10.7 10.9 10.25 10.55 9.25 10.6 9.3 10.3 8.7 11.1 8.5 11.05 8.3 10.7 8.25 10.55 7.95 10.5 6.5 9.85 6.5 9.75 6.25 10.0 5.95 10.35 5.7 10.45 5.5 10.45 Q4.85 10.85 4.95 11.8 L5.35 12.05 5.4 12.5 5.8 12.65 6.05 14.3 0.05 14.3 -0.1 13.5 Q0.5 13.1 1.05 12.65 1.35 12.45 1.65 12.65 L1.8 12.8 1.9 12.8 2.0 12.75 2.15 12.6 2.3 12.35 2.85 12.35 2.6 11.8 2.55 11.8 2.15 10.95 0.9 10.7 0.8 10.9 0.45 11.05 -0.35 10.95 Q-1.3 11.1 -2.05 10.45 L-1.65 11.5 Q-3.4 11.25 -3.9 9.55 L-4.1 8.7 Q-4.7 7.55 -4.0 6.35 L-3.9 6.25 -3.55 6.45 -3.5 6.5 -3.25 8.3 -3.1 8.35 -3.0 7.45 -2.9 7.3 -2.65 7.25 -2.4 7.25 -2.25 6.95 Q-2.3 6.25 -1.95 5.65 L-1.8 5.55 -1.5 5.7 -1.4 5.8 -1.3 6.6 -1.1 6.6 -1.1 5.45 -1.1 5.3 -0.65 5.05 -0.3 5.2 -0.25 5.3 -0.15 6.1 -0.05 6.1 -0.1 5.2 -0.1 5.05 Q0.05 4.8 0.35 4.8 L0.7 4.95 0.75 5.05 0.85 5.7 1.2 5.8 1.2 5.35 1.3 5.05 1.55 4.9 1.7 4.85 2.0 5.05 2.1 5.1 2.2 6.1 2.45 5.9 2.6 5.85 2.95 6.05 3.0 6.1 3.1 6.9 3.2 6.85 3.5 7.05 3.6 7.1 3.7 7.9 3.9 7.85 3.9 7.65 4.0 7.6 4.2 7.55 4.2 6.6 4.25 6.35 Q4.4 6.1 4.7 6.1 L4.8 6.15 4.8 5.95 4.9 5.65 Q5.05 5.45 5.35 5.45 L5.35 5.4 5.7 5.6 5.75 5.65 5.75 5.85 5.85 5.5 5.9 5.35 Q6.05 5.1 6.35 5.1 L6.7 5.25 6.75 5.35 6.75 5.9 6.85 5.85 6.95 5.85 6.95 5.45 7.0 5.15 Q7.15 4.95 7.45 4.95 L7.45 4.9 7.75 5.1 7.85 5.15 7.9 6.1 8.0 6.1 8.05 5.85 8.3 5.7 8.45 5.65 8.75 5.85 8.85 5.9 8.85 6.5 9.05 6.2 Q9.1 6.1 9.2 6.1 L9.5 6.25 9.6 6.35 9.65 6.45 9.7 6.4 9.9 6.5 10.05 6.6 10.3 7.15 10.4 7.15 10.6 7.6 11.0 9.0 11.1 6.6 11.15 6.3 11.6 6.1 11.6 6.05 M14.5 7.75 L14.6 7.8 Q14.65 9.15 14.2 10.45 L14.0 10.65 Q13.55 10.75 13.4 10.3 13.4 8.85 14.05 7.7 L14.2 7.55 14.5 7.75 M12.85 7.0 L13.2 7.15 13.25 7.25 Q13.6 9.2 12.35 10.45 L12.2 10.45 12.05 10.25 11.95 10.05 Q12.35 8.85 12.35 7.55 L12.4 7.25 12.7 7.0 12.85 7.0 M7.75 13.25 L7.9 13.75 7.8 14.3 6.2 14.3 6.3 13.3 6.35 13.15 6.75 13.15 7.1 13.5 7.65 13.2 7.75 13.25 M-5.5 7.95 L-5.2 7.7 -5.05 7.7 -4.85 7.75 -4.7 7.85 -3.75 10.45 -3.7 10.65 -4.0 11.05 -4.15 11.1 Q-5.45 9.95 -5.5 8.05 L-5.5 7.95 M-6.15 8.0 L-5.8 8.2 -5.75 8.25 -5.6 9.7 -5.65 9.95 Q-5.95 10.4 -6.4 10.05 -6.75 9.3 -6.6 8.45 L-6.6 8.25 -6.15 8.05 -6.15 8.0" fill="#b5762b" fill-rule="evenodd" stroke="none"/>
      <path d="M-10.05 4.95 L-10.15 5.0 -10.4 4.65 -10.25 4.55 -10.15 4.5 -9.95 4.7 -9.9 4.75 -10.05 4.95 M-7.75 6.1 L-7.9 6.3 -8.0 6.35 Q-8.3 6.3 -8.2 6.0 L-8.1 5.9 -8.0 5.85 -7.8 6.05 -7.75 6.1 M-5.8 7.3 L-5.75 7.2 -5.5 7.05 -5.35 7.1 -5.3 7.15 -5.25 7.55 -5.3 7.65 -5.7 7.65 -5.8 7.3 M-2.55 8.15 Q-2.35 8.35 -2.45 8.6 L-2.6 8.75 Q-2.85 8.85 -3.0 8.6 L-3.05 8.4 -3.0 8.2 -2.9 8.1 -2.8 8.05 -2.6 8.1 -2.55 8.15 M-11.75 3.25 L-11.75 3.4 -11.85 3.55 -11.9 3.6 -12.0 3.65 -12.2 3.55 -12.25 3.5 -12.3 3.4 -12.25 3.2 -12.15 3.1 -12.05 3.05 Q-11.85 3.05 -11.75 3.2 L-11.75 3.25" fill="#ffffff" fill-rule="evenodd" stroke="none"/>
      <path d="M-9.9 4.05 Q-9.55 4.1 -9.3 4.35 -9.05 4.6 -9.1 4.95 L-9.4 5.55 Q-9.65 5.8 -10.0 5.75 L-10.6 5.45 -10.8 4.85 -10.5 4.25 Q-10.25 4.0 -9.9 4.05 M-10.05 4.95 L-9.9 4.75 -9.95 4.7 -10.15 4.5 -10.25 4.55 -10.4 4.65 -10.15 5.0 -10.05 4.95 M-8.4 5.7 Q-8.15 5.45 -7.8 5.5 -7.45 5.55 -7.2 5.8 -6.95 6.05 -7.0 6.4 L-7.3 7.0 Q-7.55 7.25 -7.9 7.2 L-8.5 6.9 -8.7 6.3 -8.4 5.7 M-7.75 6.1 L-7.8 6.05 -8.0 5.85 -8.1 5.9 -8.2 6.0 Q-8.3 6.3 -8.0 6.35 L-7.9 6.3 -7.75 6.1 M-6.15 7.6 L-5.85 7.0 Q-5.6 6.75 -5.25 6.8 L-4.65 7.1 Q-4.4 7.35 -4.45 7.7 L-4.75 8.3 Q-5.0 8.55 -5.35 8.5 -5.7 8.45 -5.95 8.2 L-6.15 7.6 M-5.8 7.3 L-5.7 7.65 -5.3 7.65 -5.25 7.55 -5.3 7.15 -5.35 7.1 -5.5 7.05 -5.75 7.2 -5.8 7.3 M-2.45 7.65 L-1.65 8.0 Q-1.4 8.35 -1.45 8.85 L-1.8 9.55 Q-2.15 9.9 -2.6 9.85 L-3.35 9.45 -3.6 8.7 Q-3.6 8.25 -3.2 7.9 -2.9 7.6 -2.45 7.65 M-2.55 8.15 L-2.6 8.1 -2.8 8.05 -2.9 8.1 -3.0 8.2 -3.05 8.4 -3.0 8.6 Q-2.85 8.85 -2.6 8.75 L-2.45 8.6 Q-2.35 8.35 -2.55 8.15 M-12.4 2.9 L-11.8 2.7 Q-11.45 2.75 -11.2 3.0 -10.95 3.25 -11.0 3.6 L-11.3 4.2 -11.9 4.4 -12.5 4.1 -12.7 3.5 -12.4 2.9 M-11.75 3.25 L-11.75 3.2 Q-11.85 3.05 -12.05 3.05 L-12.15 3.1 -12.25 3.2 -12.3 3.4 -12.25 3.5 -12.2 3.55 -12.0 3.65 -11.9 3.6 -11.85 3.55 -11.75 3.4 -11.75 3.25" fill="#cccccc" fill-rule="evenodd" stroke="none"/>
      <path d="M1.95 11.1 L1.6 11.45 Q-0.05 11.65 0.15 10.2 0.2 9.85 0.5 9.6 L1.05 9.35 Q2.75 9.75 1.95 11.1" fill="#a95401" fill-rule="evenodd" stroke="none"/>
      <path d="M0.95 9.8 L0.55 9.85 Q-0.25 9.35 0.65 8.95 1.4 9.15 0.95 9.8" fill="#ffffff" fill-rule="evenodd" stroke="none"/>
      <path d="M0.95 8.5 Q1.5 8.5 1.9 8.9 2.2 9.35 2.15 9.9 L1.75 10.75 Q1.3 11.1 0.75 11.1 0.2 11.05 -0.1 10.65 L-0.45 9.7 Q-0.4 9.15 0.05 8.8 0.4 8.45 0.95 8.5 M0.95 9.8 Q1.4 9.15 0.65 8.95 -0.25 9.35 0.55 9.85 L0.95 9.8" fill="#cccccc" fill-rule="evenodd" stroke="none"/>
      <path d="M5.15 10.3 L5.15 14.05 3.2 14.05 3.2 10.3 5.15 10.3" fill="#a95401" fill-rule="evenodd" stroke="none"/>
      <path d="M5.15 10.3 L5.15 14.05 3.2 14.05 3.2 10.3 5.15 10.3 Z" fill="none" stroke="#a95401" stroke-linecap="round" stroke-linejoin="round" stroke-width="1.0"/>
      <path d="M2.9 13.1 L2.9 9.35 4.85 9.35 4.85 13.1 2.9 13.1" fill="#cccccc" fill-rule="evenodd" stroke="none"/>
      <path d="M2.9 13.1 L2.9 9.35 4.85 9.35" fill="none" stroke="#ffffff" stroke-linecap="round" stroke-linejoin="round" stroke-width="1.0"/>
      <path d="M4.85 9.35 L4.85 13.1 2.9 13.1 Z" fill="none" stroke="#9a9a9a" stroke-linecap="round" stroke-linejoin="round" stroke-width="1.0"/>
      <path d="M15.6 6.05 L15.65 6.0 15.85 5.8 15.95 5.85 16.05 5.95 Q16.15 6.25 15.85 6.3 L15.75 6.25 15.6 6.05 M19.9 3.0 L20.0 3.05 20.1 3.15 20.15 3.35 20.1 3.45 20.05 3.5 19.85 3.6 19.75 3.55 19.7 3.5 19.6 3.35 19.6 3.2 19.6 3.15 Q19.7 3.0 19.9 3.0 M13.1 7.5 Q13.0 7.3 13.15 7.1 L13.2 7.05 13.35 7.0 13.6 7.15 13.65 7.25 13.55 7.6 13.15 7.6 13.1 7.5 M18.0 4.45 L18.1 4.5 18.25 4.6 18.0 4.95 17.9 4.9 17.75 4.7 17.8 4.65 18.0 4.45 M10.85 8.15 L10.9 8.35 10.85 8.55 Q10.7 8.8 10.45 8.7 L10.3 8.55 Q10.2 8.3 10.4 8.1 L10.45 8.05 10.65 8.0 10.75 8.05 10.85 8.15" fill="#ffffff" fill-rule="evenodd" stroke="none"/>
      <path d="M20.35 4.05 Q20.1 4.3 19.75 4.35 19.4 4.4 19.15 4.15 L18.85 3.55 Q18.8 3.2 19.05 2.95 L19.65 2.65 Q20.0 2.6 20.25 2.85 L20.55 3.45 20.35 4.05 M19.9 3.0 Q19.7 3.0 19.6 3.15 L19.6 3.2 19.6 3.35 19.7 3.5 19.75 3.55 19.85 3.6 20.05 3.5 20.1 3.45 20.15 3.35 20.1 3.15 20.0 3.05 19.9 3.0 M15.6 6.05 L15.75 6.25 15.85 6.3 Q16.15 6.25 16.05 5.95 L15.95 5.85 15.85 5.8 15.65 6.0 15.6 6.05 M16.25 5.65 L16.55 6.25 16.35 6.85 Q16.1 7.1 15.75 7.15 L15.15 6.95 14.85 6.35 Q14.8 6.0 15.05 5.75 L15.65 5.45 Q16.0 5.4 16.25 5.65 M17.15 4.3 L17.75 4.0 Q18.1 3.95 18.35 4.2 L18.65 4.8 18.45 5.4 Q18.2 5.65 17.85 5.7 L17.25 5.5 16.95 4.9 Q16.9 4.55 17.15 4.3 M18.0 4.45 L17.8 4.65 17.75 4.7 17.9 4.9 18.0 4.95 18.25 4.6 18.1 4.5 18.0 4.45 M13.1 7.5 L13.15 7.6 13.55 7.6 13.65 7.25 13.6 7.15 13.35 7.0 13.2 7.05 13.15 7.1 Q13.0 7.3 13.1 7.5 M13.7 6.95 L14.0 7.55 13.8 8.15 13.2 8.45 12.6 8.25 12.3 7.65 Q12.25 7.3 12.5 7.05 12.75 6.8 13.1 6.75 13.45 6.7 13.7 6.95 M10.85 8.15 L10.75 8.05 10.65 8.0 10.45 8.05 10.4 8.1 Q10.2 8.3 10.3 8.55 L10.45 8.7 Q10.7 8.8 10.85 8.55 L10.9 8.35 10.85 8.15 M11.1 7.85 L11.5 8.65 11.2 9.4 10.5 9.8 9.65 9.5 9.3 8.8 Q9.25 8.3 9.55 7.95 9.85 7.65 10.3 7.6 10.75 7.55 11.1 7.85" fill="#cccccc" fill-rule="evenodd" stroke="none"/>
      <path d="M6.65 9.35 L7.05 9.15 Q7.75 9.2 8.05 9.75 8.4 10.0 8.35 10.35 L8.1 11.0 7.5 11.45 Q6.3 11.65 6.3 10.85 L6.3 10.8 6.1 10.45 Q6.0 9.75 6.65 9.35" fill="#a95401" fill-rule="evenodd" stroke="none"/>
      <path d="M6.9 8.45 L7.85 8.75 8.3 9.65 7.95 10.6 Q7.65 11.0 7.1 11.05 6.55 11.05 6.15 10.7 5.75 10.35 5.7 9.85 5.65 9.3 6.0 8.85 6.35 8.45 6.9 8.45 M6.9 9.75 L7.3 9.8 Q8.1 9.3 7.2 8.9 6.45 9.1 6.9 9.75" fill="#cccccc" fill-rule="evenodd" stroke="none"/>
      <path d="M6.9 9.75 Q6.45 9.1 7.2 8.9 8.1 9.3 7.3 9.8 L6.9 9.75" fill="#ffffff" fill-rule="evenodd" stroke="none"/>
      <path d="M-7.65 15.6 L-7.35 15.7 -7.5 15.65 -7.65 15.6 M-3.15 17.15 L-1.75 17.9 -1.85 17.9 -2.9 17.3 -3.15 17.15 M15.65 15.35 L15.45 15.4 15.2 15.45 Q12.95 15.85 11.0 17.0 L10.95 17.05 11.0 17.1 Q9.7 16.3 10.65 14.05 L14.15 13.5 18.7 12.4 Q18.05 13.75 16.6 15.3 L16.0 15.3 15.65 15.35" fill="#4139d0" fill-rule="evenodd" stroke="none"/>
      <path d="M8.35 15.55 L8.15 15.7 Q6.2 17.2 4.4 17.05 2.6 16.85 0.65 16.15 L-3.05 14.75 -3.9 14.35 Q-4.6 13.9 -5.15 13.7 L-1.45 14.25 4.5 14.5 10.15 14.1 8.35 15.55" fill="#2b2cae" fill-rule="evenodd" stroke="none"/>
      <path d="M11.0 17.1 L10.55 17.25 10.5 17.3 10.4 17.4 10.3 17.45 10.05 17.6 9.65 17.9 9.35 18.3 Q8.15 17.15 8.35 15.55 L10.15 14.1 10.65 14.05 Q9.7 16.3 11.0 17.1 M7.75 20.0 L5.8 21.3 4.5 21.7 Q6.2 20.15 5.95 18.05 5.9 17.35 5.5 17.0 7.0 17.25 7.65 18.8 7.95 19.4 7.75 20.0" fill="#8b8cfe" fill-rule="evenodd" stroke="none"/>
      <path d="M5.8 21.3 L7.65 20.25 7.9 20.0 9.45 18.35 9.55 18.25 9.85 17.85 11.05 17.15 11.0 17.1 M5.8 21.3 L4.5 21.7 Q3.0 21.95 1.6 21.0 L-0.2 19.65 -1.75 17.9 -3.15 17.15 -6.35 15.95 M-7.65 15.6 L-7.35 15.7 M15.65 15.35 L16.0 15.3" fill="none" stroke="#352c78" stroke-linecap="round" stroke-linejoin="round" stroke-width="1.0"/>
      <path d="M-5.15 13.7 L-8.35 13.25 -9.95 12.75 M18.7 12.4 L14.15 13.5 10.65 14.05 10.15 14.1 4.5 14.5 -1.45 14.25 -5.15 13.7" fill="none" stroke="#b5b3e3" stroke-linecap="round" stroke-linejoin="round" stroke-width="1.0"/>
      <path d="M-6.9 15.8 L-6.35 15.95" fill="none" stroke="#352c78" stroke-linecap="round" stroke-linejoin="round" stroke-width="1.0"/>
      <path d="M15.65 15.35 L15.45 15.4 Q13.2 15.95 11.05 17.15" fill="none" stroke="#352c78" stroke-linecap="round" stroke-linejoin="round" stroke-width="1.0"/>
    </g>
  </defs>
</svg>
